cutejava-front/src/assets/icons/svg/account.svg

<?xml version="1.0" standalone="no"?><!DOCTYPE svg PUBLIC "-//W3C//DTD SVG 1.1//EN" "http://www.w3.org/Graphics/SVG/1.1/DTD/svg11.dtd"><svg t="1608282865085" class="icon" viewBox="0 0 1024 1024" version="1.1" xmlns="http://www.w3.org/2000/svg" p-id="2522" xmlns:xlink="http://www.w3.org/1999/xlink" width="200" height="200"><defs><style type="text/css"></style></defs><path d="M158.335991 102.55895v819.207225h704.979891V102.55895H158.335991z m632.729838 312.192479v434.764693H230.586044V174.809003h560.479785v239.942426z" p-id="2523"></path><path d="M452.574331 317.141607h270.648699v72.250053h-270.648699zM298.392719 317.141607h78.752557v72.250053H298.392719zM452.574331 476.055599h270.648699v72.250053h-270.648699zM298.392719 476.055599h78.752557v72.250053H298.392719zM452.574331 634.96959h270.648699v72.250053h-270.648699zM298.392719 634.96959h78.752557v72.250053H298.392719z" p-id="2524"></path></svg>

<svg class="icon" viewBox="0 0 1024 1024" xmlns="http://www.w3.org/2000/svg" width="200" height="200"><defs><style/></defs><path d="M158.336 102.559v819.207h704.98V102.56h-704.98zm632.73 312.192v434.765h-560.48V174.81h560.48v239.942z"/><path d="M452.574 317.142h270.649v72.25H452.574zm-154.181 0h78.752v72.25h-78.752zm154.181 158.914h270.649v72.25H452.574zm-154.181 0h78.752v72.25h-78.752zM452.574 634.97h270.649v72.25H452.574zm-154.181 0h78.752v72.25h-78.752z"/></svg>
